X:1
T:Swan Lake Act II, No. 4, Part 5, White Swan Pas de Deux Violin Solo
T:Swan Lake
T:Act II, No. 4, Part 5, White Swan Pas de Deux Violin Solo
T:P. I. Tchaikovsky
C:Pyotr Ilyich Tchaikovsky
L:1/8
M:6/8
K:Gb
V:1 treble nm="Violin" snm="Vln."
V:1
 z3 z2"^D"[Q:1/4=92]"^Andante non troppo"[Q:1/8=80] u!1!B | !4!e3 (ud2!p! !tenuto!!1!G) | %2
 ((!2!=G3 G2) !1!A) | (2:3:2.!2!A.B (e2 d) | vd3 (u!2!e2 !2!f) | (gfe) (B2 c) | (B3 B2) (!1!E | %7
 !1!A2) (B c2)!>(! (!1!A!>)! | (!1!B3 B2)) (!4!e |"_cresc. poco a poco" !1!A3) (uB2 !tenuto!!2!c) | %10
!<(! (d3 d2) (!1!_f!<)! | !1!B3) (!2!c2 !1!d) |!<(! (e3 e2) (!4!g!<)! | !1!=c3) (!2!d2 !1!e) | %14
!<(! (f3 !2!=g2)!<)! u=a |!mf! (!3!b3 b2) !1!B | (!3!g2 f) ue2 ve | (!4!agf) ve2 ue | %18
 (ag!3!f) (e=d!1!e) | (!3!a3 !2!g2) !2!f | (e3 e2)!p! e | (ecB) (uA2 !4!e) | %22
 (e.!1!E).uF .v!1!G.uA.!2!B |"_riten." ((!3!c3 c2) !2!B | %24
"^Piu mosso"[Q:1/8=60]"^ca. 120" !1!E) z z4 | z6 | z6 | z6 | z6 | z6 | z6 | z3 z2!f! (u!2!=b | %32
 .!open!!4!=e') z (!2!=b .^c') z/ .v!1!^g/(b | %33
 .^c')(3(!1!=B/^c/^d/!open!=e/4^f/4^g/4=a/4 .=b)(3(!1!e/f/g/a/4b/4c'/4^d'/4 | %34
 .!open!=e') z (v!2!=b .^c') z/ v!1!^g/(u!2!b | %35
 .^c')(3(=B/^c/^d/!open!=e/4^f/4^g/4=a/4 .=b)(3(e/f/g/a/4b/4c'/4^d'/4 | %36
 .!open!u=e')(!2!^d'/^f'/).ue'/.!2!^c'/ .=b(!2!^a/c'/).vb/.u=a/ | %37
 .^g(!2!^^f/=a/).g/.^f/ .^e(10:8:10(!1!^c/4^d/4e/4!1!f/4g/4^a/4=b/4^c'/4^d'/4^e'/4 | %38
 .!4!^f') z (!1!^c' .=d') z/ .v!open!!3!=a/(c' | %39
 .=d')(3(!1!^c/^d/^e/^f/4^g/4=a/4=b/4 .^c')(3(!1!f/g/a/b/4c'/4^d'/4^e'/4 | %40
 .^f') z (^c' .=d') z/ .!open!!3!=a/(c' | %41
 .=d')(3(!1!^c/^d/^e/^f/4^g/4=a/4=b/4 .^c')(3(!1!f/g/a/b/4c'/4^d'/4^e'/4 | %42
 .^f')(!3!^e'/!4!^g'/).!3!f'/.!1!=d'/ .!1!^c'(!2!^b/!3!d'/).!2!c'/.=a/ | %43
 ^f(9:8:9(^d/4!2!^e/4!1!f/4^g/4=a/4=b/4^c'/4^d'/4^e'/4 .u^f')(3(^d'/!1!=e'/f'/)(3(f'/^g'/!2!=a'/) | %44
 .=b'(!3!^a'/!4!^c''/).!4!b'/.!2!^g'/ .=e'(!2!^^f'/!3!=a'/).!3!g'/.e'/ | %45
 .!2!=b(!1!^a/^c'/).b/.^f/ (!1!^d/f/d/=B/).^F/.^D/ | ^^C z z4 | z6 | z6 | z6 | z6 | z6 | z6 | z6 | %54
 z2 z z2!mf! v!1!^f | .u!4!=b z (^f .^g) z/ .^d/(f | %56
 .^g)(3(!2!^F/^G/^A/=B/4^c/4^d/4=e/4 .^f)(3(!1!B/c/d/e/4f/4g/4^a/4 | .=b) z (!3!^f .^g) z/ .^d/(f | %58
 .^g)(3(!2!^F/^G/^A/=B/4^c/4^d/4=e/4 .^f)(3(!1!B/c/d/e/4f/4g/4^a/4 | %59
 .=b)(9:8:9(!3!=B/4^c/4^d/4=e/4^f/4^g/4^a/4b/4^c'/4 .^d')(9:8:9(!1!d/4e/4!1!f/4g/4a/4b/4c'/4d'/4=e'/4 | %60
 .^f')(3(^d'/^e'/!2!f'/)(3(f'/^g'/!3!=a'/) .a'(3(a'/!3!g'/f'/)(3(f'/=e'/!2!d'/) | ^c' z z2 z2 |] %62

